X:1
T:Cantate Domino
T:Cantate Domino
T:Michel Richard de la Lande
C:Michel Richard de la Lande
%%score [ 1 2 3 ]
L:1/8
Q:1/4=120
M:3/4
K:A
V:1 treble-8 nm="Tenor" snm="Ten."
V:2 bass nm="Baritone" snm="Bar."
V:3 bass nm="Bass" snm="Bass"
V:1
 z6 | z6 | z6 | z6 | z6 | z6 | z6 | z6 | z6 | z6 | z6 | z6 | z6 | z6 | z6 | z6 | z6 | z6 | z6 | %19
w: |||||||||||||||||||
 z6 | z6 | z6 | z6 | z6 | z6 | z6 | z6 | z6 | z2 z2 c2 | f4 f2 | f3 f f2 | z2 e2 B2 | c4 c2 | %33
w: |||||||||can-|ta- te|Do- mi- no|om- nis|ter- ra,|
 z2 e2 B2 | c4 c2 | z2 e2 c2 | f6 | B4 z2 | z6 | z6 | G2 G2 A2 | B4 B2 | c2 B2 A2 | G3 F E2 | z6 | %45
w: om- nis|ter- ra,|om- nis|ter-|ra.|||no- mi- ni|e- jus,|et be- ne-|di- ci- te||
 z6 | f2 e2 d2 | c3 B A2 | A3 A d2 | d6 | !fermata!c2 z2 z2 |] %51
w: |et be- ne-|di- ci- te|no- mi- ni|e-|jus.|
V:2
 z2 z2 E,2 | A,2 A,2 E,2 | F,2- E,2 D,2 | E,3 D, C,2 | F,3 G, A,2 | G,2 !breath!E,2 E,2 | %6
w: Can-|ta- te, can-|ta\_\_\_\_- * te|Do- mi- no|can- ti- cum|no- vum. Can-|
 A,2 A,2 C2 | F,2 !breath!F,2 F,2 | B,3- A, B,C | B,4 F,2 | G,3 F, E,2 | A,3 G, A,2 | A,4- G,2 | %13
w: ta- te, can-|ta- te, can-|ta\_\_\_\_\_\_\_\_- * * *|* te|Do- mi- no|can- ti- cum|no\_\_\_\_- *|
 !breath!A,4 E,2 | F,3- G, E,F, | G,F, G,A, B,G, | A,2 !breath!A,2 A,2 | B,3- C A,B, | C3 B, CD | %19
w: vum. Can-|ta\_\_\_\_\_\_\_\_\_\_\_- * * *||* te, can-|ta\_\_\_\_\_\_\_\_\_\_\_\_- * * *||
 C2 !breath!A,2 B,2 | C2- B,2 A,2 | B,3 A, G,2 | C3- B, A,2 | B,4 !breath!G,2 | A,4 B,2 | C2- B,4 | %26
w: * te, can-|ta\_\_- * te|Do- mi- no|om\_\_- * nis|ter- ra,|om- nis|ter\_\_\_- *|
 !fermata!A,4 z2 | z2 z2 E,2 | A,2 A,2 A,2 | A,4 B,2 | C3 C C2 | z2 B,2 G,2 | A,4 A,2 | %33
w: ra.|can-|ta- te, can-|ta- te|Do- mi- no|om- nis|ter- ra,|
 z2 B,2 G,2 | A,4 A,2 | z2 B,2 C2 | A,6 | B,4 z2 | C2 B,2 A,2 | G,3 F, E,2 | B,2 B,2 A,2 | %41
w: om- nis|ter- ra,|om- nis|ter-|ra.|Et be- ne-|di- ci- te,|et be- ne-|
 G,3 A, B,2 | E,3 E, E,2 | E,4 E,2 | z6 | E,2 F,2 G,2 | A,3 A, G,2 | C6- | C3 B, A,2 | A,4- G,2 | %50
w: di- ci- te,|no- mi- ni|e- jus,||et be- ne-|di- ci- te|no-|* mi- ni|e- *|
 !fermata!A,2 z2 z2 |] %51
w: jus.|
V:3
 z6 | z6 | z6 | z6 | z6 | z6 | z6 | z6 | z6 | z6 | z6 | z6 | z6 | z6 | z6 | z6 | z6 | z6 | z6 | %19
w: |||||||||||||||||||
 z6 | z6 | z6 | z6 | z6 | z6 | z6 | z6 | z6 | z2 z2 A,,2 | D,4 B,,2 | F,3 F, F,2 | z2 G,2 E,2 | %32
w: |||||||||can-|ta- te|Do- mi- no|om- nis|
 A,4 A,2 | z2 G,2 E,2 | A,4 A,2 | z2 G,2 A,2 | F,6 | E,4 z2 | z6 | z6 | E,2 D,2 C,2 | %41
w: ter- ra,|om- nis|ter- ra,|om- nis|ter-|ra.|||et be- ne-|
 B,,3 A,, G,,2 | A,,3 G,, A,,2 | E,4 E,2 | A,2 G,2 F,2 | E,3 D, C,2 | F,3 F, G,2 | A,4 A,2 | %48
w: di- ci- te|no- mi- ni|e- jus.|et be- ne-|di- ci- te|no- mi- ni|e- jus.|
 C,3 C, D,2 | E,6 | !fermata!A,,2 z2 z2 |] %51
w: no- mi- ni|e-|jus.|

